X: 11152
T: Dumbarton's Drums
R: reel
M: 4/4
K: Bminor
|:de|f4 fgfe|d2a2 a2gf|edef gfed|B4 B2AB|
d3e fedB|AfAB d3f|edef gfed|B4 B2:|
|:AB|d2f2 defd|edef gfed|edef gfed|B2e2 e2dB|
ABde fedB|AfAB d3f|edef gfed|B4 B2:|

